X: 3
T:Culler's Lament, The
M:3/4
L:1/8
Q:120
C:Words: Peter Cape, Music: Don Toms
K:C
"Intro"
"C"z6|:"Em"z6|"Dm"z6|"G"z6|"C"z6|"F+e"z6|"C"z6|z6|!
"C"gg3g2|"G"fg3f2|"C"eg3g2|"G"fg3zf|
"C"e3e2e|"Am"e3cc2|"Dm"c2B2c2|"G"d6-|d4z2|!
"C"cc3B2|"Am"AA3f2|"Dm"f2g3f|"Am"ec3-c2-|c4zG|
"C"G3GG2|"G"dd3d2|d3ed2|"C"c6:||
